X:1
T: Dess Lodge
C:
R:Reel
Q: 232
K:A
M:4/4
L:1/8
E|:A2 cA BE GB|A2 cd e2 cA|df ed cB Ac|B2 f2 ed cB|
A2 cA BE GB|Ac de f2 af|e2 cA dB ed|1c2 A2 A2 E2:|2c2 A2 A2 ed|
|:cA ce a2 ea|fe df eA cA|df ed cB Ac|B2 f2 ed cB|
A2 cA BE GB|Ac de f2 af|e2 cA dB ed|1c2 A2 A2 ed:|2c2 A2 A2 ||
